packages/katcn/src/icons/svg/attention-solid.svg

<svg xmlns="http://www.w3.org/2000/svg" fill="none" viewBox="0 0 24 24"><path fill="#000" d="M12 2C6.5 2 2 6.5 2 12s4.5 10 10 10 10-4.5 10-10S17.5 2 12 2"/><path fill="#fff" d="M12 14c-.6 0-1-.4-1-1V6.3c0-.6.4-1 1-1s1 .4 1 1V13c0 .5-.4 1-1 1m0 4.7c-.6 0-1-.4-1-1v-1c0-.6.4-1 1-1s1 .4 1 1v1c0 .6-.4 1-1 1"/></svg>

<svg width="24" height="24" viewBox="0 0 24 24" fill="none" xmlns="http://www.w3.org/2000/svg">
<path d="M12 2C6.5 2 2 6.5 2 12C2 17.5 6.5 22 12 22C17.5 22 22 17.5 22 12C22 6.5 17.5 2 12 2Z" fill="black"/>
<path d="M12 14C11.4 14 11 13.6 11 13V6.3C11 5.7 11.4 5.3 12 5.3C12.6 5.3 13 5.7 13 6.3V13C13 13.5 12.6 14 12 14Z" fill="white"/>
<path d="M12 18.7C11.4 18.7 11 18.3 11 17.7V16.7C11 16.1 11.4 15.7 12 15.7C12.6 15.7 13 16.1 13 16.7V17.7C13 18.3 12.6 18.7 12 18.7Z" fill="white"/>
</svg>
